X:1
T:Lillibulero – In the Beggars Opera
M:6/8
L:1/8
B:Samuel, Anne & Peter Thompson – The Hibernian Muse
B:(London, 1787, No.  77, p. 48)
N:”A Collection of the most Favorite Compositions of
N:Carolan the Celebrated Irish Bard”
Z:AK/Fiddler’s Companion
K:G
G|G>AG B2B|A>BA c3|(B/c/d)G c2B|AGF G2G|
G>AG B2B|A>BA c3|(B/c/d)G c2B|AGF G2||
f|g2f g2d|de=f e2d|def gde|dcB A2d|
edc Bcd|edc Bcd|(e/f/g)G c2B|AGF G2||

